X: 1
T: \vZensko za raka   [Cm]
O: Macedonia
S: presented by Yves Moreau
P: (A)ABCD,ABCD,taksim,CD
M: C
L: 1/8
K: Cm
"A"[|\
"Cm"cdcB cz cd | "Cm"ez ef "Bb"~e2d2 | "Eb"e6 f2 | "Eb"gagf ~e2ed |\
"Cm"cdcB cGcd  | "Cm"eBef  "Bb"~e2d2 | "Eb"e6 f2 | "Eb"bagf ~e2ed |]
"B"|:\
"Cm"deed ~c2cB | "Bb"cddc ~B2=AB |[1,3 "Cm"c6 B2 | "Fm"gagf ~e2ed \
                                 :|[2  "Cm"c6 f2 | "Cm"cB=AB ~c2cG \
                                 :|[4  "Cm"c6 f2 | "Cm"cB=AB ~c2cz |]
"C"|:\
"Eb"GABc BAGF | "Fm"FEGF ~E2ED | "Cm"EDCE "Bb"DCB,D |[1,3 "Cm"CG,DG, EG,FG, \
                                                   :|[2,4 "Cm"~C3B, =A,B,Cz :|
"D"|:\
"Cm"EDCE "Bb(Gm)"DCB,D | "Cm"~C3B, =A,B,CD | "Cm"EDCE "Bb(Gm)"DCB,D |[1,3 "Cm"~C3G, "Fm"EFFG, \
                                                                   :|[2,4 "Cm"~C2CG, C2z2 :|

%%sep 1 1 500
%%sep 1 1 500

